X: 23798
T: Little Jenny
R: hornpipe
M: 4/4
K: Dmajor
|:A>G|(3FAd f>e d>cB>A|(3GBd g>f e2- e>B|(3cAe a>f g2 (3ABc|(3dcd (3fdB (3ABG (3FGE|
F>df>e d2 (3cBA|(3GB/c/d g>f e2- e2|(3Ac/d/e a>f g>eB>c|d2 (3f^ef d2:|
|:(3efg|a>fd>A f>ed>c|B>GB<d b2 (3def|g>ec>A ^G>A=G>E|(3dcd (3fdB A2- A>g|
(3afd (3AdG (3FdE D2|B>G (3BB/c/d b2- b>f|g>ec>A ^G>A (3ABc|(3dcd f2 d2:|

